!!!!SEGMENT: pl-cz--iii-592--002_rygall-ignacy--applaudite-jubilate-basso-solo-applaudite-jubilate.krn
!!!cenid: 17xx:1096
!!!COM: Rygall, Ignacy
!!!COM-rismID: pe30110281
!!!CDT: <1750->1799
!!!CNT:
!!!OPR: Applaudite jubilate
!!!OTL: Basso solo - Applaudite jubilate
!!!OMV: 002
!!!PDT:
!!!AGN:
!!!SMS-siglum: PL-CZ
!!!SMS-shelfmark: III-592
!!!SMS-shelfwork: 001-002 M
!!!SMS-variant:
!!!SMS-altvar:
!!!NIFC-rismSourceID: 300001121
!!!NIFC-rismChildID: 300001121
!!!NIFC-islandoraID: pl-cz:39438
!!!URL-pdf-islandora: https://repozytorium.nifc.pl/islandora/object/pl-cz%3A39438/datastream/PDF/view
!!!URL-scan:
!!!ONB-nifc: UWAGA: części Applaudite jubilate: Euntre, Basso solo – Applaudite jubilate, Aria - Annus desideratus (Allegro molto), Basso solo – Urget filialis (Adagio), Tempo primo – Annus desideratus, Recitativo – Roboent ergo, Coro – Vivat Provincialis Wiktor
!!!AIN: 5 empty 2 oboe 1 timpa 1 viola 2 violn 1 vox
!!!key:
**kern	**kern	**kern	**kern	**dynam	**kern	**text	**kern	**kern	**kern	**kern	**kern	**kern	**kern
*part12	*part11	*part10	*part9	*part9	*part8	*part8	*part7	*part6	*part5	*part4	*part3	*part2	*part1
*staff12	*staff11	*staff10	*staff9	*	*staff8	*staff8	*staff7	*staff6	*staff5	*staff4	*staff3	*staff2	*staff1
*Iempty	*Iviola	*Ivioln	*Ivioln	*	*Iempty	*	*Iempty	*Ivox	*Itimpa	*Iempty	*Iempty	*Ioboe	*Ioboe
*I"Baʃso	*I"Alto Viola	*I"Violino Secondo	*I"Violino Primo	*	*I"Baʃso Solo	*	*I"Canto IIdo	*I"Canto 1mo	*I"Tympano	*I"Cornu 2do in D	*I"Cornu 1mo in D	*I"Oboe IIdo	*I"Oboe 1mo
*I'B	*	*I'Vl II	*I'Vl I	*	*I'B solo	*	*I'S II	*I'S I	*I'Timp	*I'Cor II in D	*I'Cor I in D	*I'Ob II	*I'Ob I
*clefF4	*clefC3	*clefG2	*clefG2	*	*clefF4	*	*clefG2	*clefG2	*clefF4	*clefG2	*clefG2	*clefG2	*clefG2
*	*	*	*	*	*	*	*	*	*	*ITrd6c10	*ITrd6c10	*	*
*k[f#c#]	*k[f#c#]	*k[f#c#]	*k[f#c#]	*	*k[f#c#]	*	*k[f#c#]	*k[f#c#]	*k[f#c#]	*k[f#c#]	*k[f#c#]	*k[f#c#]	*k[f#c#]
*D:	*	*D:	*D:	*	*D:	*	*D:	*D:	*D:	*	*	*D:	*D:
*M4/4	*M4/4	*M4/4	*M4/4	*	*M4/4	*	*M4/4	*M4/4	*M4/4	*M4/4	*M4/4	*M4/4	*M4/4
*met(c)	*met(c)	*met(c)	*met(c)	*	*met(c)	*	*met(c)	*met(c)	*met(c)	*met(c)	*met(c)	*met(c)	*met(c)
=1	=1	=1	=1	=1	=1	=1	=1	=1	=1	=1	=1	=1	=1
!	!	!	!	!	!LO:SIC:o:v=pomocniczo zapisana na drugiej pięciolinii partia basso	!	!	!	!	!	!	!	!LO:TX:t=P:problem=4,8,16\middle, right or left&colon; global
!	!LO:TX:a:t=Tace	!LO:TX:t=P:problem=klucz, znaki i metrum wpisane na tej samej karcie na początku poprzedniej części	!LO:TX:t=P:problem=klucz, znaki i metrum wpisane na tej samej karcie na początku poprzedniej części	!	!	!	!LO:TX:a:t=Tace.	!LO:SIC:o:s:v:t=Tacet niezaznaczony na karcie głosu	!LO:TX:a:t=Tace	!LO:TX:a:t=Tace	!LO:TX:a:t=Tace	!LO:TX:a:t=Tace	!LO:TX:a:t=Tace
4D\	1ryy	4dd/ 4d/	4ff#\ 4a\ 4d\	.	4ryy	.	1ryy	1ryy	1ryy	1ryy	1ryy	1ryy	1ryy
4ryy	.	4ryy	4ryy	.	8d\	Ap-	.	.	.	.	.	.	.
.	.	.	.	.	8d\	-plau-	.	.	.	.	.	.	.
2ryy	.	2ryy	2ryy	.	16A\	-di-	.	.	.	.	.	.	.
.	.	.	.	.	16A\	-te	.	.	.	.	.	.	.
.	.	.	.	.	16G\	ju-	.	.	.	.	.	.	.
.	.	.	.	.	16A\	-bi-	.	.	.	.	.	.	.
.	.	.	.	.	8F#\	-la-	.	.	.	.	.	.	.
.	.	.	.	.	8F#\	-te	.	.	.	.	.	.	.
=2	=2	=2	=2	=2	=2	=2	=2	=2	=2	=2	=2	=2	=2
1ryy	1ryy	1ryy	1ryy	.	4D\	in-	1ryy	1ryy	1ryy	1ryy	1ryy	1ryy	1ryy
.	.	.	.	.	8D\	-co-	.	.	.	.	.	.	.
.	.	.	.	.	8E\	-lae	.	.	.	.	.	.	.
.	.	.	.	.	8F#\	E-	.	.	.	.	.	.	.
.	.	.	.	.	8G\	-re	.	.	.	.	.	.	.
.	.	.	.	.	8A\	mi	.	.	.	.	.	.	.
.	.	.	.	.	8B\	Pau-	.	.	.	.	.	.	.
!	!	!	!	!	!LO:LB:g=original	!	!	!	!	!	!	!	!
=3	=3	=3	=3	=3	=3	=3	=3	=3	=3	=3	=3	=3	=3
*2\right	*	*2\right	*	*	*	*	*	*	*	*	*	*	*
*tremolo	*	*tremolo	*	*	*	*	*	*	*	*	*	*	*
8G\L	1ryy	8b\L	8gg\L	.	8A\	-li-	1ryy	1ryy	1ryy	1ryy	1ryy	1ryy	1ryy
8G\	.	8b\	8gg\	.	8G\	-na	.	.	.	.	.	.	.
8G\	.	8b\	8gg\	.	4r	.	.	.	.	.	.	.	.
8G\J	.	8b\J	8gg\J	.	.	.	.	.	.	.	.	.	.
*Xtremolo	*	*Xtremolo	*	*	*	*	*	*	*	*	*	*	*
4Fn\	.	4b\	4gg\	.	8d\	fi-	.	.	.	.	.	.	.
.	.	.	.	.	16d\	-ly	.	.	.	.	.	.	.
.	.	.	.	.	16d\	.	.	.	.	.	.	.	.
4ryy	.	4ryy	4ryy	.	8B\	Pa-	.	.	.	.	.	.	.
.	.	.	.	.	8B\	-tri	.	.	.	.	.	.	.
=4	=4	=4	=4	=4	=4	=4	=4	=4	=4	=4	=4	=4	=4
1ryy	1ryy	1ryy	1ryy	.	8B\	Mem-	1ryy	1ryy	1ryy	1ryy	1ryy	1ryy	1ryy
.	.	.	.	.	8B\	-bra	.	.	.	.	.	.	.
.	.	.	.	.	8B\	ca-	.	.	.	.	.	.	.
.	.	.	.	.	16B\	-pi-	.	.	.	.	.	.	.
.	.	.	.	.	16B\	-ti	.	.	.	.	.	.	.
.	.	.	.	.	8A\	lau-	.	.	.	.	.	.	.
.	.	.	.	.	8G\	-re-	.	.	.	.	.	.	.
.	.	.	.	.	8c#\	-a-	.	.	.	.	.	.	.
.	.	.	.	.	8c#\	-to	.	.	.	.	.	.	.
!	!	!	!	!	!LO:LB:g=original	!	!	!	!	!	!	!	!
=5	=5	=5	=5	=5	=5	=5	=5	=5	=5	=5	=5	=5	=5
*tremolo	*	*	*	*	*	*	*	*	*	*	*	*	*
8C#\L	1ryy	4e/	4cc#\	.	1ryy	.	1ryy	1ryy	1ryy	1ryy	1ryy	1ryy	1ryy
8C#\	.	.	.	.	.	.	.	.	.	.	.	.	.
!	!	!LO:TX:t=P:problem=mixed beam	!	!	!	!	!	!	!	!	!	!	!
8C#\	.	(16f#/LL	(16dd\LL	.	.	.	.	.	.	.	.	.	.
.	.	16e/)	16cc#\)	.	.	.	.	.	.	.	.	.	.
8C#\J	.	(16dd\	(16ff#\	.	.	.	.	.	.	.	.	.	.
.	.	16cc#\JJ)	16ee\JJ)	.	.	.	.	.	.	.	.	.	.
8C#\L	.	4b\	4dd\	.	.	.	.	.	.	.	.	.	.
8C#\	.	.	.	.	.	.	.	.	.	.	.	.	.
8C#\	.	(16cc#\LL	(16ee\LL	.	.	.	.	.	.	.	.	.	.
.	.	16b\)	16dd\)	.	.	.	.	.	.	.	.	.	.
8C#\J	.	(16ee\	(16gg\	.	.	.	.	.	.	.	.	.	.
.	.	16dd\JJ)	16ff#\JJ)	.	.	.	.	.	.	.	.	.	.
=6	=6	=6	=6	=6	=6	=6	=6	=6	=6	=6	=6	=6	=6
8C#\L	1ryy	4cc#\	4ee\	.	1ryy	.	1ryy	1ryy	1ryy	1ryy	1ryy	1ryy	1ryy
8C#\	.	.	.	.	.	.	.	.	.	.	.	.	.
8C#\	.	(16ee\LL	16ff#\LL	.	.	.	.	.	.	.	.	.	.
.	.	16dd\)	16ee\	.	.	.	.	.	.	.	.	.	.
8C#\J	.	(16ff#\	16aa\	.	.	.	.	.	.	.	.	.	.
*Xtremolo	*	*	*	*	*	*	*	*	*	*	*	*	*
.	.	16ee\JJ)	16gg\JJ	.	.	.	.	.	.	.	.	.	.
8r	.	8dd\L	8ff#\L	.	.	.	.	.	.	.	.	.	.
8D\L	.	8dd\J	8ff#\J	.	.	.	.	.	.	.	.	.	.
8BB\	.	4dd\	4ff#\	.	.	.	.	.	.	.	.	.	.
8GG\J	.	.	.	.	.	.	.	.	.	.	.	.	.
!	!	!LO:LB:g=original	!	!	!	!	!	!	!	!	!	!	!
=7	=7	=7	=7	=7	=7	=7	=7	=7	=7	=7	=7	=7	=7
!LO:TX:t=P:problem=mixed beam	!	!LO:TX:t=P:problem=klamra łukowa	!LO:TX:t=P:problem=klamra łukowa	!	!	!	!	!	!	!	!	!	!
8C#\L	1ryy	24cc#\LL	24ee\LL	.	1ryy	.	1ryy	1ryy	1ryy	1ryy	1ryy	1ryy	1ryy
.	.	24b\	24dd\	.	.	.	.	.	.	.	.	.	.
.	.	24cc#\	24ee\	.	.	.	.	.	.	.	.	.	.
8F#\	.	24a\	24ff#\	.	.	.	.	.	.	.	.	.	.
.	.	24g\	24ee\	.	.	.	.	.	.	.	.	.	.
.	.	24f#\JJ	24dd\J	.	.	.	.	.	.	.	.	.	.
8G\	.	8e/L	8cc#\	.	.	.	.	.	.	.	.	.	.
!	!	!LO:TX:a:t=P:problem=kreska pseudotaktowa	!	!	!	!	!	!	!	!	!	!	!
8GG/J	.	8f#/J	8dd\J	.	.	.	.	.	.	.	.	.	.
!LO:LB:g=original	!	!	!LO:LB:g=original	!	!	!	!	!	!	!	!	!	!
!LO:TX:a:t=|	!	!	!	!	!	!	!	!	!	!	!	!	!
!LO:TX:t=P:problem=mixed beam	!	!LO:TX:b:t=|	!LO:TX:a:t=|	!	!	!	!	!	!	!	!	!	!
8C#/L	.	8e/L	8cc#\L	.	.	.	.	.	.	.	.	.	.
!LO:TX:a:t=|	!	!LO:TX:b:t=|	!LO:TX:a:t=|	!	!	!	!	!	!	!	!	!	!
8c#\	.	8cc#/	8cc#\	.	.	.	.	.	.	.	.	.	.
!LO:TX:a:t=|	!	!LO:TX:b:t=|	!LO:TX:a:t=|	!	!	!	!	!	!	!	!	!	!
8A\	.	8a/	8a\	.	.	.	.	.	.	.	.	.	.
!LO:TX:a:t=|	!	!LO:TX:b:t=|	!LO:TX:a:t=|	!	!	!	!	!	!	!	!	!	!
8G\J	.	8g/J	8g\J	.	.	.	.	.	.	.	.	.	.
=8	=8	=8-	=8	=8	=8	=8	=8	=8	=8	=8	=8	=8	=8
*	*	*^	*	*	*	*	*	*	*	*	*	*	*
4F#X\	1ryy	4a/	4f#X\	4dd/ 4f#X/	.	8d\	ling-	1ryy	1ryy	1ryy	1ryy	1ryy	1ryy	1ryy
.	.	.	.	.	.	8d\	-vas	.	.	.	.	.	.	.
4ryy	.	4ryy	4ryy	4ryy	.	8A\	ves-	.	.	.	.	.	.	.
!	!	!	!	!	!	!LO:SIC:s:v=8G	!	!	!	!	!	!	!	!
.	.	.	.	.	.	8A\	-tras	.	.	.	.	.	.	.
2ryy	.	2ryy	2ryy	2ryy	.	8F#X\	e	.	.	.	.	.	.	.
.	.	.	.	.	.	8G\	no	.	.	.	.	.	.	.
.	.	.	.	.	.	8A\	da-	.	.	.	.	.	.	.
.	.	.	.	.	.	8D\	-te	.	.	.	.	.	.	.
*	*	*v	*v	*	*	*	*	*	*	*	*	*	*	*
=9	=9	=9	=9	=9	=9	=9	=9	=9	=9	=9	=9	=9	=9
!	!	!LO:TX:t=P:problem=na początku taktu #	!	!	!	!	!	!	!	!	!	!	!
1ryy	1ryy	1ryy	1ryy	.	4A\	in-	1ryy	1ryy	1ryy	1ryy	1ryy	1ryy	1ryy
.	.	.	.	.	4B\	-tri-	.	.	.	.	.	.	.
.	.	.	.	.	8A\	-pu-	.	.	.	.	.	.	.
.	.	.	.	.	16G\	-di-	.	.	.	.	.	.	.
.	.	.	.	.	16G\	-a	.	.	.	.	.	.	.
.	.	.	.	.	4ryy	.	.	.	.	.	.	.	.
=10	=10	=10	=10	=10	=10	=10	=10	=10	=10	=10	=10	=10	=10
*	*	*^	*	*	*	*	*	*	*	*	*	*	*
8e\L	1ryy	4g/	1G\	(4gg\	.	1ryy	.	1ryy	1ryy	1ryy	1ryy	1ryy	1ryy	1ryy
8G\	.	.	.	.	.	.	.	.	.	.	.	.	.	.
8d\	.	4g/	.	4ff#\	.	.	.	.	.	.	.	.	.	.
8G\J	.	.	.	.	.	.	.	.	.	.	.	.	.	.
8c#\L	.	4g/	.	4ee\	.	.	.	.	.	.	.	.	.	.
8G\	.	.	.	.	.	.	.	.	.	.	.	.	.	.
8B\	.	4g/	.	4dd\)	.	.	.	.	.	.	.	.	.	.
8G\J	.	.	.	.	.	.	.	.	.	.	.	.	.	.
=11	=11	=11	=11	=11	=11	=11	=11	=11	=11	=11	=11	=11	=11	=11
8c#\L	1ryy	4g/	1G\	4ee\	.	1ryy	.	1ryy	1ryy	1ryy	1ryy	1ryy	1ryy	1ryy
8G\	.	.	.	.	.	.	.	.	.	.	.	.	.	.
8B\	.	4g/	.	4dd\	.	.	.	.	.	.	.	.	.	.
8G\J	.	.	.	.	.	.	.	.	.	.	.	.	.	.
8e\L	.	4g/	.	4cc#\	.	.	.	.	.	.	.	.	.	.
8G\	.	.	.	.	.	.	.	.	.	.	.	.	.	.
8d\	.	4g/	.	4b\	.	.	.	.	.	.	.	.	.	.
8G\J	.	.	.	.	.	.	.	.	.	.	.	.	.	.
=12	=12	=12	=12	=12	=12	=12	=12	=12	=12	=12	=12	=12	=12	=12
8e\L	1ryy	4g/	1G\	4cc#\	.	1ryy	.	1ryy	1ryy	1ryy	1ryy	1ryy	1ryy	1ryy
8G\	.	.	.	.	.	.	.	.	.	.	.	.	.	.
8d\	.	4g/	.	4b\	.	.	.	.	.	.	.	.	.	.
8G\J	.	.	.	.	.	.	.	.	.	.	.	.	.	.
8c#\L	.	4g/	.	4ee\	.	.	.	.	.	.	.	.	.	.
8G\	.	.	.	.	.	.	.	.	.	.	.	.	.	.
8B\	.	4g/	.	4dd\	.	.	.	.	.	.	.	.	.	.
8G\J	.	.	.	.	.	.	.	.	.	.	.	.	.	.
=13	=13	=13	=13	=13	=13	=13	=13	=13	=13	=13	=13	=13	=13	=13
8e\L	1ryy	4g/	1G\	4cc#\	.	1ryy	.	1ryy	1ryy	1ryy	1ryy	1ryy	1ryy	1ryy
8G\	.	.	.	.	.	.	.	.	.	.	.	.	.	.
8d\	.	4g/	.	4b\	.	.	.	.	.	.	.	.	.	.
8G\J	.	.	.	.	.	.	.	.	.	.	.	.	.	.
8c#\L	.	4g/	.	4a\	.	.	.	.	.	.	.	.	.	.
8G\	.	.	.	.	.	.	.	.	.	.	.	.	.	.
!	!	!	!	!LO:SIC:s:v=4b	!	!	!	!	!	!	!	!	!	!
8B\	.	4g/	.	4a\	.	.	.	.	.	.	.	.	.	.
8G\J	.	.	.	.	.	.	.	.	.	.	.	.	.	.
*	*	*v	*v	*	*	*	*	*	*	*	*	*	*	*
=14	=14	=14	=14	=14	=14	=14	=14	=14	=14	=14	=14	=14	=14
4c#X\	1ryy	4a/	4ee\ 4a\	.	4e\	quo-	1ryy	1ryy	1ryy	1ryy	1ryy	1ryy	1ryy
4ryy	.	4ryy	4ryy	.	8e\	-ni-	.	.	.	.	.	.	.
.	.	.	.	.	8e\	-am	.	.	.	.	.	.	.
!	!	!	!	!	!LO:LB:g=original	!	!	!	!	!	!	!	!
2ryy	.	2ryy	2ryy	.	8B\	lin-	.	.	.	.	.	.	.
.	.	.	.	.	8c#X\	-quae	.	.	.	.	.	.	.
.	.	.	.	.	8B\	cae-	.	.	.	.	.	.	.
.	.	.	.	.	8A\	-li	.	.	.	.	.	.	.
!LO:LB:g=original	!	!	!	!	!	!	!	!	!	!	!	!	!
=15	=15	=15	=15	=15	=15	=15	=15	=15	=15	=15	=15	=15	=15
*	*	*	*2\right	*	*	*	*	*	*	*	*	*	*
*	*	*tremolo	*tremolo	*	*	*	*	*	*	*	*	*	*
8A\L	1ryy	8cc#X\L	8aa\L	.	4r	.	1ryy	1ryy	1ryy	1ryy	1ryy	1ryy	1ryy
8A\	.	8cc#X\	8aa\	.	.	.	.	.	.	.	.	.	.
8A\	.	8cc#X\	8aa\	.	8A\	nem-	.	.	.	.	.	.	.
8A\J	.	8cc#X\J	8aa\J	.	8B\	-pe	.	.	.	.	.	.	.
*	*	*Xtremolo	*Xtremolo	*	*	*	*	*	*	*	*	*	*
4G\	.	4cc#\	4aa\	.	8c#X\	Stael-	.	.	.	.	.	.	.
.	.	.	.	.	8c#\	-lae	.	.	.	.	.	.	.
4ryy	.	4ryy	4ryy	.	16c#\	in-	.	.	.	.	.	.	.
.	.	.	.	.	16c#\	-di-	.	.	.	.	.	.	.
.	.	.	.	.	16c#\	-ge-	.	.	.	.	.	.	.
!	!	!	!	!	!LO:N:vis=8	!	!	!	!	!	!	!	!
.	.	.	.	.	16d\	-ti	.	.	.	.	.	.	.
=16	=16	=16	=16	=16	=16	=16	=16	=16	=16	=16	=16	=16	=16
!	!	!	!	!	!LO:N:vis=8	!	!	!	!	!	!	!	!
2r	1ryy	2r	2r	.	16e\	e-	1ryy	1ryy	1ryy	1ryy	1ryy	1ryy	1ryy
!	!	!	!	!	!LO:N:vis=8	!	!	!	!	!	!	!	!
.	.	.	.	.	16e\	-jus	.	.	.	.	.	.	.
!	!	!	!	!	!LO:N:vis=8	!	!	!	!	!	!	!	!
.	.	.	.	.	16e\	Di-	.	.	.	.	.	.	.
!	!	!	!	!	!LO:N:vis=8	!	!	!	!	!	!	!	!
.	.	.	.	.	16c#\	-vi-	.	.	.	.	.	.	.
.	.	.	.	.	8B\	-niʃ-	.	.	.	.	.	.	.
.	.	.	.	.	16A#X\	-si-	.	.	.	.	.	.	.
.	.	.	.	.	16A#\	-mo	.	.	.	.	.	.	.
4r	.	4r	4r	.	8c#\	Ne-	.	.	.	.	.	.	.
.	.	.	.	.	8c#\	-po-	.	.	.	.	.	.	.
!	!	!	!	!	!LO:N:vis=8	!	!	!	!	!	!	!	!
8r	.	8r	8r	.	16d\	-mu-	.	.	.	.	.	.	.
!	!	!	!	!	!LO:N:vis=8	!	!	!	!	!	!	!	!
.	.	.	.	.	16c#\	-ce-	.	.	.	.	.	.	.
8D\	.	8ccn\ 8d\	8ff#\ 8ccn\ 8d\	.	8B\	-no	.	.	.	.	.	.	.
!	!	!	!	!	!LO:LB:g=original	!	!	!	!	!	!	!	!
=17	=17	=17	=17	=17	=17	=17	=17	=17	=17	=17	=17	=17	=17
*	*	*tremolo	*	*	*	*	*	*	*	*	*	*	*
!LO:TX:t=P:problem=mixed beam	!	!	!	!	!	!	!	!	!	!	!	!	!
8GG/L	1ryy	16d/ 16B/LL	4gg\	.	1ryy	.	1ryy	1ryy	1ryy	1ryy	1ryy	1ryy	1ryy
.	.	16d/ 16B/	.	.	.	.	.	.	.	.	.	.	.
8G\	.	16d/ 16B/	.	.	.	.	.	.	.	.	.	.	.
.	.	16d/ 16B/	.	.	.	.	.	.	.	.	.	.	.
8G\	.	16d/ 16B/	2gg\	.	.	.	.	.	.	.	.	.	.
.	.	16d/ 16B/	.	.	.	.	.	.	.	.	.	.	.
8G\J	.	16d/ 16B/	.	.	.	.	.	.	.	.	.	.	.
.	.	16d/ 16B/JJ	.	.	.	.	.	.	.	.	.	.	.
*tremolo	*	*	*	*	*	*	*	*	*	*	*	*	*
8G\L	.	16d/ 16B/LL	.	.	.	.	.	.	.	.	.	.	.
.	.	16d/ 16B/	.	.	.	.	.	.	.	.	.	.	.
8G\	.	16d/ 16B/	.	.	.	.	.	.	.	.	.	.	.
.	.	16d/ 16B/	.	.	.	.	.	.	.	.	.	.	.
8G\	.	16d/ 16B/	(8ff#\L	.	.	.	.	.	.	.	.	.	.
.	.	16d/ 16B/	.	.	.	.	.	.	.	.	.	.	.
8G\J	.	16d/ 16B/	8ee\J)	.	.	.	.	.	.	.	.	.	.
.	.	16d/ 16B/JJ	.	.	.	.	.	.	.	.	.	.	.
=18	=18	=18	=18	=18	=18	=18	=18	=18	=18	=18	=18	=18	=18
8G\L	1ryy	16d/ 16B/LL	(8ee\L	.	1ryy	.	1ryy	1ryy	1ryy	1ryy	1ryy	1ryy	1ryy
.	.	16d/ 16B/	.	.	.	.	.	.	.	.	.	.	.
8G\	.	16d/ 16B/	8dd\J)	.	.	.	.	.	.	.	.	.	.
.	.	16d/ 16B/	.	.	.	.	.	.	.	.	.	.	.
8G\	.	16d/ 16B/	2dd\	.	.	.	.	.	.	.	.	.	.
.	.	16d/ 16B/	.	.	.	.	.	.	.	.	.	.	.
8G\J	.	16d/ 16B/	.	.	.	.	.	.	.	.	.	.	.
.	.	16d/ 16B/JJ	.	.	.	.	.	.	.	.	.	.	.
8G\L	.	16d/ 16B/LL	.	.	.	.	.	.	.	.	.	.	.
.	.	16d/ 16B/	.	.	.	.	.	.	.	.	.	.	.
8G\	.	16d/ 16B/	.	.	.	.	.	.	.	.	.	.	.
.	.	16d/ 16B/	.	.	.	.	.	.	.	.	.	.	.
8G\	.	16d/ 16B/	4dd#X\	.	.	.	.	.	.	.	.	.	.
.	.	16d/ 16B/	.	.	.	.	.	.	.	.	.	.	.
8G\J	.	16d/ 16B/	.	.	.	.	.	.	.	.	.	.	.
.	.	16d/ 16B/JJ	.	.	.	.	.	.	.	.	.	.	.
=19	=19	=19	=19	=19	=19	=19	=19	=19	=19	=19	=19	=19	=19
*	*	*^	*	*	*	*	*	*	*	*	*	*	*
8G\L	1ryy	16e/LL	16c#\LL	4ee\	.	1ryy	.	1ryy	1ryy	1ryy	1ryy	1ryy	1ryy	1ryy
.	.	16e/	16c#\	.	.	.	.	.	.	.	.	.	.	.
8G\	.	16e/	16c#\	.	.	.	.	.	.	.	.	.	.	.
.	.	16e/	16c#\	.	.	.	.	.	.	.	.	.	.	.
8G\	.	16e/	16c#\	2ee\	.	.	.	.	.	.	.	.	.	.
.	.	16e/	16c#\	.	.	.	.	.	.	.	.	.	.	.
8G\J	.	16e/	16c#\	.	.	.	.	.	.	.	.	.	.	.
.	.	16e/JJ	16c#\JJ	.	.	.	.	.	.	.	.	.	.	.
8G\L	.	16e/LL	16c#\LL	.	.	.	.	.	.	.	.	.	.	.
.	.	16e/	16c#\	.	.	.	.	.	.	.	.	.	.	.
8G\	.	16e/	16c#\	.	.	.	.	.	.	.	.	.	.	.
.	.	16e/	16c#\	.	.	.	.	.	.	.	.	.	.	.
8G\	.	16e/	16c#\	(8dd\L	.	.	.	.	.	.	.	.	.	.
.	.	16e/	16c#\	.	.	.	.	.	.	.	.	.	.	.
8G\J	.	16e/	16c#\	8cc#\J)	.	.	.	.	.	.	.	.	.	.
.	.	16e/JJ	16c#\JJ	.	.	.	.	.	.	.	.	.	.	.
*	*	*v	*v	*	*	*	*	*	*	*	*	*	*	*
=20	=20	=20	=20	=20	=20	=20	=20	=20	=20	=20	=20	=20	=20
8G\L	1ryy	16fn/ 16G/LL	(8cc#\L	.	1ryy	.	1ryy	1ryy	1ryy	1ryy	1ryy	1ryy	1ryy
.	.	16fn/ 16G/	.	.	.	.	.	.	.	.	.	.	.
8G\	.	16fn/ 16G/	8b\J)	.	.	.	.	.	.	.	.	.	.
.	.	16fn/ 16G/	.	.	.	.	.	.	.	.	.	.	.
8G\	.	16fn/ 16G/	2b\	.	.	.	.	.	.	.	.	.	.
.	.	16fn/ 16G/	.	.	.	.	.	.	.	.	.	.	.
8G\J	.	16fn/ 16G/	.	.	.	.	.	.	.	.	.	.	.
.	.	16fn/ 16G/JJ	.	.	.	.	.	.	.	.	.	.	.
8G\L	.	16f/ 16G/LL	.	.	.	.	.	.	.	.	.	.	.
.	.	16f/ 16G/	.	.	.	.	.	.	.	.	.	.	.
8G\	.	16f/ 16G/	.	.	.	.	.	.	.	.	.	.	.
.	.	16f/ 16G/	.	.	.	.	.	.	.	.	.	.	.
8G\	.	16f/ 16G/	4b\	.	.	.	.	.	.	.	.	.	.
.	.	16f/ 16G/	.	.	.	.	.	.	.	.	.	.	.
8G\J	.	16f/ 16G/	.	.	.	.	.	.	.	.	.	.	.
.	.	16f/ 16G/JJ	.	.	.	.	.	.	.	.	.	.	.
=21	=21	=21	=21	=21	=21	=21	=21	=21	=21	=21	=21	=21	=21
!	!	!	!LO:TX:a:t=|	!	!	!	!	!	!	!	!	!	!
8G\L	1ryy	16e/LL	4cc#\	.	1ryy	.	1ryy	1ryy	1ryy	1ryy	1ryy	1ryy	1ryy
.	.	16e/	.	.	.	.	.	.	.	.	.	.	.
8G\	.	16e/	.	.	.	.	.	.	.	.	.	.	.
.	.	16e/	.	.	.	.	.	.	.	.	.	.	.
!	!	!	!LO:TX:a:t=|	!	!	!	!	!	!	!	!	!	!
8G\	.	16e/	8cc#\L	.	.	.	.	.	.	.	.	.	.
.	.	16e/	.	.	.	.	.	.	.	.	.	.	.
!	!	!	!LO:TX:a:t=|	!	!	!	!	!	!	!	!	!	!
8G\J	.	16e/	8cc#\J	.	.	.	.	.	.	.	.	.	.
.	.	16e/JJ	.	.	.	.	.	.	.	.	.	.	.
!	!	!	!LO:TX:a:t=|	!	!	!	!	!	!	!	!	!	!
8G\L	.	16f#X/LL	8cc#\L	.	.	.	.	.	.	.	.	.	.
.	.	16f#X/	.	.	.	.	.	.	.	.	.	.	.
8G\	.	16f#X/	(16b\L	.	.	.	.	.	.	.	.	.	.
.	.	16f#X/	16cc#\JJ)	.	.	.	.	.	.	.	.	.	.
!	!	!	!LO:TX:a:t=|	!	!	!	!	!	!	!	!	!	!
8G\	.	16f#X/	8dd\L	.	.	.	.	.	.	.	.	.	.
.	.	16f#X/	.	.	.	.	.	.	.	.	.	.	.
!	!	!	!LO:TX:a:t=|	!	!	!	!	!	!	!	!	!	!
8G\J	.	16f#X/	8cc#\J	.	.	.	.	.	.	.	.	.	.
.	.	16f#X/JJ	.	.	.	.	.	.	.	.	.	.	.
*	*	*Xtremolo	*	*	*	*	*	*	*	*	*	*	*
!LO:LB:g=original	!	!	!	!	!	!	!	!	!	!	!	!	!
=22	=22	=22	=22	=22	=22	=22	=22	=22	=22	=22	=22	=22	=22
8G\L	1ryy	8a/L	(8cc#\L	.	1ryy	.	1ryy	1ryy	1ryy	1ryy	1ryy	1ryy	1ryy
8G\	.	8g/J	8b\J)	.	.	.	.	.	.	.	.	.	.
8G\	.	(8B/L	2gg\	.	.	.	.	.	.	.	.	.	.
8G\J	.	8d/)	.	.	.	.	.	.	.	.	.	.	.
8BB\L	.	(8B/	.	.	.	.	.	.	.	.	.	.	.
8BB\	.	8d/J)	.	.	.	.	.	.	.	.	.	.	.
8BB\	.	4ryy	(8dd\L	.	.	.	.	.	.	.	.	.	.
8BB\J	.	.	8b\J)	.	.	.	.	.	.	.	.	.	.
*Xtremolo	*	*	*	*	*	*	*	*	*	*	*	*	*
=23	=23	=23	=23	=23	=23	=23	=23	=23	=23	=23	=23	=23	=23
4C#\	1ryy	4e/	(8b\L	.	1ryy	.	1ryy	1ryy	1ryy	1ryy	1ryy	1ryy	1ryy
.	.	.	8a\)	.	.	.	.	.	.	.	.	.	.
4C#\	.	4e/	(8cc#\	.	.	.	.	.	.	.	.	.	.
.	.	.	8ee\J)	.	.	.	.	.	.	.	.	.	.
4D\	.	4f#/	4dd\	.	.	.	.	.	.	.	.	.	.
4DD/	.	4A/	4f#\	.	.	.	.	.	.	.	.	.	.
=24	=24	=24	=24	=24	=24	=24	=24	=24	=24	=24	=24	=24	=24
!LO:TX:a:t=|	!	!LO:TX:b:t=|	!LO:TX:b:t=|	!	!LO:N:vis=4	!	!	!	!	!	!	!	!
8G\L	1.ryy	8B/L	8g/L	.	2r	.	1.ryy	1.ryy	1.ryy	1.ryy	1.ryy	1.ryy	1.ryy
!LO:TX:a:t=|	!	!LO:TX:b:t=|	!LO:TX:b:t=|	!	!	!	!	!	!	!	!	!	!
8B\	.	8b/	8b/	.	.	.	.	.	.	.	.	.	.
!LO:TX:a:t=|	!	!LO:TX:b:t=|	!LO:TX:b:t=|	!	!	!	!	!	!	!	!	!	!
8E\	.	8e/	8e/	.	.	.	.	.	.	.	.	.	.
!LO:TX:a:t=|	!	!LO:TX:b:t=|	!	!	!	!	!	!	!	!	!	!	!
8D\J	.	8d/J	8d/J	.	.	.	.	.	.	.	.	.	.
!	!	!LO:LB:g=original	!LO:LB:g=original	!	!	!	!	!	!	!	!	!	!
!LO:TX:a:t=|	!	!	!	!	!	!	!	!	!	!	!	!	!
4C#X\	.	4a/ 4c#X/	4ee\ 4a\	.	8A\	lau-	.	.	.	.	.	.	.
.	.	.	.	.	8A\	-des	.	.	.	.	.	.	.
4ryy	.	4ryy	4ryy	.	8A\	u-	.	.	.	.	.	.	.
.	.	.	.	.	8B\	-ni-	.	.	.	.	.	.	.
2ryy	.	2ryy	2ryy	.	8c#X\	-ver-	.	.	.	.	.	.	.
.	.	.	.	.	8d\	-so	.	.	.	.	.	.	.
.	.	.	.	.	8e\	or-	.	.	.	.	.	.	.
.	.	.	.	.	8A\	-bi	.	.	.	.	.	.	.
=25	=25	=25	=25	=25	=25	=25	=25	=25	=25	=25	=25	=25	=25
2r	1ryy	2r	2r	.	8G\	de-	1ryy	1ryy	1ryy	1ryy	1ryy	1ryy	1ryy
.	.	.	.	.	8F#\	-prae-	.	.	.	.	.	.	.
.	.	.	.	.	8E\	-di-	.	.	.	.	.	.	.
.	.	.	.	.	8D\	-cant	.	.	.	.	.	.	.
!	!	!	!	!	!LO:LB:g=original	!	!	!	!	!	!	!	!
4r	.	4r	4r	.	2ryy	.	.	.	.	.	.	.	.
8r	.	8r	8r	.	.	.	.	.	.	.	.	.	.
8A\	.	8ee\ 8a\	8ccc#\ 8aa\ 8a\	.	.	.	.	.	.	.	.	.	.
=26	=26	=26	=26	=26	=26	=26	=26	=26	=26	=26	=26	=26	=26
*tremolo	*	*	*	*	*	*	*	*	*	*	*	*	*
8D\L	1ryy	4ff#\	4ddd\	.	1ryy	.	1ryy	1ryy	1ryy	1ryy	1ryy	1ryy	1ryy
8D\	.	.	.	.	.	.	.	.	.	.	.	.	.
!	!	!	!LO:TX:a:t=|	!LO:DY:b:t=p&colon;	!	!	!	!	!	!	!	!	!
8D\	.	4f#/	4a\	p	.	.	.	.	.	.	.	.	.
8D\J	.	.	.	.	.	.	.	.	.	.	.	.	.
!	!	!	!LO:TX:a:t=|	!	!	!	!	!	!	!	!	!	!
8D\L	.	4g/	4b\	.	.	.	.	.	.	.	.	.	.
8D\	.	.	.	.	.	.	.	.	.	.	.	.	.
!	!	!	!LO:TX:a:t=|	!	!	!	!	!	!	!	!	!	!
8D\	.	4e/	4cc#\	.	.	.	.	.	.	.	.	.	.
8D\J	.	.	.	.	.	.	.	.	.	.	.	.	.
=27	=27	=27	=27	=27	=27	=27	=27	=27	=27	=27	=27	=27	=27
8D\L	1ryy	4f#/	4dd\	.	1ryy	.	1ryy	1ryy	1ryy	1ryy	1ryy	1ryy	1ryy
8D\	.	.	.	.	.	.	.	.	.	.	.	.	.
8D\	.	4dd\	4ff#\	.	.	.	.	.	.	.	.	.	.
8D\J	.	.	.	.	.	.	.	.	.	.	.	.	.
8D\L	.	4b\	8.gg\L	.	.	.	.	.	.	.	.	.	.
8D\	.	.	.	.	.	.	.	.	.	.	.	.	.
.	.	.	32ff#\LL	.	.	.	.	.	.	.	.	.	.
.	.	.	32gg\JJJ	.	.	.	.	.	.	.	.	.	.
8D\	.	4cc#\	8aa\L	.	.	.	.	.	.	.	.	.	.
8D\J	.	.	8gg\J	.	.	.	.	.	.	.	.	.	.
*Xtremolo	*	*	*	*	*	*	*	*	*	*	*	*	*
=28	=28	=28	=28	=28	=28	=28	=28	=28	=28	=28	=28	=28	=28
8D\L	1ryy	8dd\L	8ff#\L	.	2r	.	1ryy	1ryy	1ryy	1ryy	1ryy	1ryy	1ryy
8d\	.	8dd\	8dd\	.	.	.	.	.	.	.	.	.	.
8B\	.	8b\	8b\	.	.	.	.	.	.	.	.	.	.
8A\J	.	8a\J	8a\J	.	.	.	.	.	.	.	.	.	.
4G#X\	.	4b\	4ee\ 4b\	.	4e\	Vo-	.	.	.	.	.	.	.
4ryy	.	4ryy	4ryy	.	8B\	-ca-	.	.	.	.	.	.	.
.	.	.	.	.	8A\	-lem	.	.	.	.	.	.	.
=29	=29	=29	=29	=29	=29	=29	=29	=29	=29	=29	=29	=29	=29
1..ryy	1..ryy	1..ryy	1..ryy	.	16G#X\	Ta-	1..ryy	1..ryy	1..ryy	1..ryy	1..ryy	1..ryy	1..ryy
.	.	.	.	.	16G#\	-ci-	.	.	.	.	.	.	.
.	.	.	.	.	8G#\	-tum	.	.	.	.	.	.	.
.	.	.	.	.	4ryy	.	.	.	.	.	.	.	.
.	.	.	.	.	8E\	in	.	.	.	.	.	.	.
.	.	.	.	.	8F#\	Si-	.	.	.	.	.	.	.
!	!	!	!	!	!LO:N:vis=16	!	!	!	!	!	!	!	!
.	.	.	.	.	8G#X\	-gil-	.	.	.	.	.	.	.
.	.	.	.	.	16G#\	-lo	.	.	.	.	.	.	.
.	.	.	.	.	16G#\	Sa-	.	.	.	.	.	.	.
.	.	.	.	.	8G#\	-cra-	.	.	.	.	.	.	.
.	.	.	.	.	8A\	-men-	.	.	.	.	.	.	.
.	.	.	.	.	8B\	-ta-	.	.	.	.	.	.	.
.	.	.	.	.	8E\	-li	.	.	.	.	.	.	.
.	.	.	.	.	4c#\	pr-	.	.	.	.	.	.	.
!LO:LB:g=original	!	!	!	!	!	!	!	!	!	!	!	!	!
=30	=30	=30	=30	=30	=30	=30	=30	=30	=30	=30	=30	=30	=30
*tremolo	*	*	*	*	*	*	*	*	*	*	*	*	*
8A\L	1ryy	2c#/	2a\	.	8B\	-cla-	1ryy	1ryy	1ryy	1ryy	1ryy	1ryy	1ryy
8A\	.	.	.	.	8A\	-mant.	.	.	.	.	.	.	.
!	!	!	!	!	!LO:LB:g=original	!	!	!	!	!	!	!	!
8A\	.	.	.	.	4ryy	.	.	.	.	.	.	.	.
8A\J	.	.	.	.	.	.	.	.	.	.	.	.	.
8A\L	.	(8d/L	(8b\L	.	2ryy	.	.	.	.	.	.	.	.
8A\	.	8c#/)	8a\)	.	.	.	.	.	.	.	.	.	.
8A\	.	(8f#/	(8dd\	.	.	.	.	.	.	.	.	.	.
8A\J	.	8e/J)	8cc#\J)	.	.	.	.	.	.	.	.	.	.
!	!	!LO:LB:g=original	!LO:LB:g=original	!	!	!	!	!	!	!	!	!	!
=31	=31	=31	=31	=31	=31	=31	=31	=31	=31	=31	=31	=31	=31
8A\L	1ryy	2a\	2cc#\	.	1ryy	.	1ryy	1ryy	1ryy	1ryy	1ryy	1ryy	1ryy
8A\	.	.	.	.	.	.	.	.	.	.	.	.	.
8A\	.	.	.	.	.	.	.	.	.	.	.	.	.
8A\J	.	.	.	.	.	.	.	.	.	.	.	.	.
8A\L	.	(8b\L	(8dd\L	.	.	.	.	.	.	.	.	.	.
8A\	.	8a\)	8cc#\)	.	.	.	.	.	.	.	.	.	.
8A\	.	(8dd\	(8ff#\	.	.	.	.	.	.	.	.	.	.
8A\J	.	8cc#\J)	8ee\J)	.	.	.	.	.	.	.	.	.	.
=32	=32	=32	=32	=32	=32	=32	=32	=32	=32	=32	=32	=32	=32
!	!	!	!LO:TX:a:t=|	!	!	!	!	!	!	!	!	!	!
8A\L	1ryy	4cc#\	4ee\	.	1ryy	.	1ryy	1ryy	1ryy	1ryy	1ryy	1ryy	1ryy
8A\	.	.	.	.	.	.	.	.	.	.	.	.	.
8A\	.	(8a\L	(8cc#\L	.	.	.	.	.	.	.	.	.	.
8A\J	.	8cc#\J)	8ee\J)	.	.	.	.	.	.	.	.	.	.
!	!	!	!LO:TX:a:t=|	!	!	!	!	!	!	!	!	!	!
8E\L	.	(8cc#\L	8ee\L	.	.	.	.	.	.	.	.	.	.
!	!	!	!LO:TX:a:t=|	!	!	!	!	!	!	!	!	!	!
8E\	.	8b\)	8dd\	.	.	.	.	.	.	.	.	.	.
!	!	!	!LO:TX:a:t=|	!	!	!	!	!	!	!	!	!	!
8E\	.	(8a\	8cc#\	.	.	.	.	.	.	.	.	.	.
!	!	!	!LO:TX:a:t=|	!	!	!	!	!	!	!	!	!	!
8E\J	.	8g#X\J)	8b\J	.	.	.	.	.	.	.	.	.	.
*Xtremolo	*	*	*	*	*	*	*	*	*	*	*	*	*
=33	=33	=33	=33	=33	=33	=33	=33	=33	=33	=33	=33	=33	=33
!LO:TX:a:t=|	!	!	!	!	!	!	!	!	!	!	!	!	!
8A\L	1ryy	8a/L	8a/L	.	2ryy	.	1ryy	1ryy	1ryy	1ryy	1ryy	1ryy	1ryy
!LO:TX:a:t=|	!	!	!	!	!	!	!	!	!	!	!	!	!
8c#\	.	8cc#/	8cc#/	.	.	.	.	.	.	.	.	.	.
!LO:TX:a:t=|	!	!	!	!	!	!	!	!	!	!	!	!	!
8F#\	.	8f#/	8f#/	.	.	.	.	.	.	.	.	.	.
!LO:TX:a:t=|	!	!	!	!	!	!	!	!	!	!	!	!	!
8E\J	.	8e/J	8e/J	.	.	.	.	.	.	.	.	.	.
!	!	!	!	!	!LO:N:vis=8.	!	!	!	!	!	!	!	!
4D#X\	.	4b/ 4d#X/	4ff#\ 4b\	.	8B\	-et	.	.	.	.	.	.	.
.	.	.	.	.	8B\	ex-	.	.	.	.	.	.	.
4ryy	.	4ryy	4ryy	.	8B\	-in-	.	.	.	.	.	.	.
.	.	.	.	.	8c#\	-de	.	.	.	.	.	.	.
=34	=34	=34	=34	=34	=34	=34	=34	=34	=34	=34	=34	=34	=34
2ryy	1ryy	2ryy	2ryy	.	16d#X\	lau-	1ryy	1ryy	1ryy	1ryy	1ryy	1ryy	1ryy
.	.	.	.	.	16d#\	-re-	.	.	.	.	.	.	.
.	.	.	.	.	8c#\	-a	.	.	.	.	.	.	.
.	.	.	.	.	8d#\	Cae-	.	.	.	.	.	.	.
.	.	.	.	.	8c#\	-le-	.	.	.	.	.	.	.
!	!	!	!	!	!LO:TX:t=P:problem=8 poprawiona na 4	!	!	!	!	!	!	!	!
4ryy	.	4ryy	4ryy	.	4B\	-sti	.	.	.	.	.	.	.
4D#X\	.	4ff#\ 4b\	4aa\ 4b\	.	4r	.	.	.	.	.	.	.	.
=35	=35	=35	=35	=35	=35	=35	=35	=35	=35	=35	=35	=35	=35
2ryy	1ryy	2ryy	2ryy	.	8A\	re-	1ryy	1ryy	1ryy	1ryy	1ryy	1ryy	1ryy
.	.	.	.	.	8A\	-di-	.	.	.	.	.	.	.
.	.	.	.	.	8A\	-mi-	.	.	.	.	.	.	.
.	.	.	.	.	8A\	-tum	.	.	.	.	.	.	.
4ryy	.	4ryy	4ryy	.	8A\	in-	.	.	.	.	.	.	.
.	.	.	.	.	8B\	-ter	.	.	.	.	.	.	.
4G#X\	.	4b\ 4e\	4ee\ 4b\	.	16G#X\	Mar-	.	.	.	.	.	.	.
.	.	.	.	.	16G#\	-ty-	.	.	.	.	.	.	.
.	.	.	.	.	8G#\	-ris	.	.	.	.	.	.	.
=36	=36	=36	=36	=36	=36	=36	=36	=36	=36	=36	=36	=36	=36
4A\	1ryy	4cc#\ 4e\	4cc#\ 4e\	.	8r	.	1ryy	1ryy	1ryy	1ryy	1ryy	1ryy	1ryy
.	.	.	.	.	8A\	in-	.	.	.	.	.	.	.
4r	.	4ryy	4r	.	8G#X\	-di-	.	.	.	.	.	.	.
.	.	.	.	.	8F#\	-gi-	.	.	.	.	.	.	.
4r	.	4ryy	4r	.	8E\	-tant	.	.	.	.	.	.	.
.	.	.	.	.	4r	.	.	.	.	.	.	.	.
8r	.	8ryy	8r	.	.	.	.	.	.	.	.	.	.
8BB/	.	8b\ 8f#\	8dd#X\ 8f#\	.	8ryy	.	.	.	.	.	.	.	.
=37	=37	=37	=37	=37	=37	=37	=37	=37	=37	=37	=37	=37	=37
*	*	*^	*	*	*	*	*	*	*	*	*	*	*
!	!	!LO:SIC:s:v=n=2=4g#	!	!	!	!	!	!	!	!	!	!	!	!LO:TX:t=P:global:problem=ozdobna kreska taktowa kończąca fragment
4E\	1ryy	4b/	4g\	2ee\ 2g#X\	.	1ryy	.	1ryy	1ryy	1ryy	1ryy	1ryy	1ryy	1ryy
4r	.	4r	4ryy	.	.	.	.	.	.	.	.	.	.	.
2r	.	2r	2ryy	2r	.	.	.	.	.	.	.	.	.	.
*	*	*v	*v	*	*	*	*	*	*	*	*	*	*	*
==	==	==	==	==	==	==	==	==	==	==	==	==	==
*-	*-	*-	*-	*-	*-	*-	*-	*-	*-	*-	*-	*-	*-
!!!system-decoration: [(s1,s2)],[(s3,s4)],[s5],[(s6,s7)],[s8],[(s9,s10,s11)],[s12]
!!!ENC: Katarzyna Serwa
!!!END: 2020-10-25
!!!ENC: Leszek Kubiak
!!!END: 2022-02-01
!!!YEC: Copyright 2022 Narodowy Instytut Fryderyka Chopina (https://polishscores.org)
!!!YEM: License CC-BY-4.0 (https://creativecommons.org/licenses/by/4.0)
